!!!OTL: 293. Frohsinn. / Var.
!!!COM: R. Bornhardt
!!!ODT: 1810 (vor)
!!!ARE: Europa, Mitteleuropa, Deutschland
!!!SCT: B0293A
!!!TXL: @@DE
!!!YEM: Copyright 1995, estate of Helmut Schaffrath.
**kern	**text
*ICvox	*
*Ivox	*
*clefG2	*
*M3/8	*
*k[f#c#g#]	*
*A:	*
=1	=1
!LO:TX:a:t=Munter.	!
{8.cc#	Fröh-
16b	-lich
8a	und
=2	=2
8a	wohl-
8e	-ge-
8e}	-muth
=3	=3
{8.dd	wan-
16cc#	-delt
8b	das
=4	=4
8b	jun-
8e	-ge
8e}	Blut
=5	=5
{8.cc#	ü-
16dd	-ber
8ee	den
=6	=6
8ff#	Rhein
8b	und
8b}	Belt
=7	=7
{8dd	auf
8b	und
8g#	ab
=8	=8
8.b	durch
16a	die
8a}	Welt.
=9	=9
{8.cc#	ü-
16dd	-ber
8ee	den
=10	=10
8ff#	Rhein
8b	und
8b}	Belt
=11	=11
{8dd	auf
8b	und
8g#	ab
=12	=12
8.b	durch
16a	die
8a}	Welt.
==	==
!!!AGN: Stimmungs - Lied, Freude, Jugend
!!!GTL: Lieder der Freude und Geseligkeit
!!!ONB: ESAC (Essen Associative Code) Database: BOEHME
!!!AMT: simple triple
!!!AIN: vox
!!!EED: Helmut Schaffrath
!!!EEV: 1.0
!!Var. (sehr verbreitet)
!!!Text: G. Ph. Schmidt v. Lübeck
!!!URL-scan: https://archive.org/details/BoehmeVtLieder1895/page/n247/mode/2up
!!!ENC: Anna Maria Matuszewska
!!!EEV: 2024/04/07
*-	*-
